Adwaita++/actions/22/view-filter.svg

<svg height="22" viewBox="0 0 22 22" width="22" xmlns="http://www.w3.org/2000/svg">
  <path d="m6 2v12h1v-12zm-4 1v1h2v-1zm7 0v2h2v-2zm4 0v2h2v-2zm-11 3v1h2v-1zm7 1v2h2v-2zm4 0v2h2v-2zm-11 2v1h2v-1zm7 2v2h2v-2zm4 0v2h2v-2zm-11 1v1h2v-1z" fill="#444" transform="translate(3 3)"/>
</svg>

<svg xmlns="http://www.w3.org/2000/svg" width="22" height="22" viewBox="0 0 22 22">
 <defs>
  <style id="current-color-scheme" type="text/css">
   .ColorScheme-Text { color:#444444; } .ColorScheme-Highlight { color:#4285f4; }
  </style>
 </defs>
 <path style="fill:currentColor" class="ColorScheme-Text" d="M 6 2 L 6 14 L 7 14 L 7 2 L 6 2 z M 2 3 L 2 4 L 4 4 L 4 3 L 2 3 z M 9 3 L 9 5 L 11 5 L 11 3 L 9 3 z M 13 3 L 13 5 L 15 5 L 15 3 L 13 3 z M 2 6 L 2 7 L 4 7 L 4 6 L 2 6 z M 9 7 L 9 9 L 11 9 L 11 7 L 9 7 z M 13 7 L 13 9 L 15 9 L 15 7 L 13 7 z M 2 9 L 2 10 L 4 10 L 4 9 L 2 9 z M 9 11 L 9 13 L 11 13 L 11 11 L 9 11 z M 13 11 L 13 13 L 15 13 L 15 11 L 13 11 z M 2 12 L 2 13 L 4 13 L 4 12 L 2 12 z" transform="translate(3 3)"/>
</svg>
